X: 23
T: Apley House
P: Longways for as many as will
%R: march, reel
B: "The Dancing-Master: Containing Directions and Tunes for Dancing" printed by W. Pearson for John Walsh, London ca. 1709
S: 7: DMDfD http://digital.nls.uk/special-collections-of-printed-music/pageturner.cfm?id=89751228 p.320
Z: 2013 John Chambers <jc:trillian.mit.edu>
M: C|
L: 1/8
K: G
% - - - - - - - - - - - - - - - - - - - - - - - - -
[|\
B2G2 Bcd2 | e2c2 A2c2 | B2G2 g2G2 | B4 d4 |]|\
f2a2 (ba) (gf) | e2g2 g2(fe) | f2a2 (ba)(gf) | e4 d4 |[|\
e2c2 cdec | d2B2 BcdB | g2G2 G2A2 | B4 d4 |]
% - - - - - - - - - - Dance description: - - - - - - - - - -
%%begintext align
%% The two men take hands and fall back, and turn single; the women do the same: Hands a-cross half
%% round, and turn single. The second couple being in the first place, cast off, and the other couple follow
%% and lead up a-breast, the first couple cross over into the second couples place, the second couple lead up
%% and cross over into their own places.
%% [DMDfD]
%%endtext
%%sep 1 8 500

%%sep 1 1 500
%%sep 1 1 500
